app/component-library/components/Icons/Icon/assets/wallet-money.svg

<svg width="24" height="24" viewBox="0 0 24 24" fill="none" xmlns="http://www.w3.org/2000/svg">
<path fill-rule="evenodd" clip-rule="evenodd" d="M21.243 9.92417H19.168C18.8883 9.93138 18.613 9.99585 18.359 10.1136C18.105 10.2314 17.8776 10.4 17.6908 10.609C17.504 10.8181 17.3617 11.0632 17.2726 11.3295C17.1835 11.5957 17.1495 11.8773 17.1727 12.1572C17.2361 12.6749 17.4864 13.1514 17.8761 13.4964C18.2658 13.8415 18.768 14.0312 19.2877 14.0298H21.2829C21.5475 14.0298 21.8013 13.9243 21.9883 13.7365C22.1754 13.5487 22.2805 13.294 22.2805 13.0284V10.9456C22.2834 10.8089 22.2583 10.6732 22.2069 10.5467C22.1555 10.4201 22.0789 10.3055 21.9817 10.2098C21.8845 10.1141 21.7688 10.0394 21.6418 9.99031C21.5147 9.94118 21.379 9.91867 21.243 9.92417ZM20.7143 15.5318H19.2877C18.3804 15.5473 17.5001 15.2222 16.8192 14.6202C16.1382 14.0182 15.7057 13.1827 15.6064 12.2774C15.5623 11.7582 15.6333 11.2357 15.8144 10.7474C15.9955 10.2592 16.2823 9.81725 16.6539 9.45353C16.98 9.12808 17.368 8.87173 17.7947 8.69971C18.2214 8.52769 18.6783 8.44351 19.138 8.45216H20.6843C20.7529 8.4538 20.821 8.44095 20.8842 8.41445C20.9475 8.38795 21.0045 8.34839 21.0515 8.29834C21.0986 8.24829 21.1346 8.18887 21.1573 8.12394C21.18 8.05901 21.1888 7.99001 21.1832 7.92144C21.139 6.80253 20.6903 5.73807 19.921 4.92715C19.1516 4.11622 18.1144 3.61436 17.0031 3.51543C16.7541 3.49486 16.5039 3.49486 16.2549 3.51543H7.27627C7.00578 3.51476 6.73563 3.53485 6.46819 3.57551C5.27655 3.69249 4.17611 4.26742 3.39706 5.18004C2.618 6.09266 2.22066 7.27228 2.28814 8.47219V15.4817C2.28814 16.8096 2.81367 18.0831 3.74913 19.0221C4.68458 19.9611 5.95333 20.4886 7.27627 20.4886H16.2549C16.8731 20.532 17.4937 20.4514 18.0805 20.2516C18.6674 20.0518 19.2087 19.7367 19.673 19.3248C20.1373 18.9128 20.5152 18.4122 20.7848 17.8521C21.0543 17.292 21.2101 16.6837 21.243 16.0625C21.2491 15.9913 21.2396 15.9196 21.2152 15.8524C21.1907 15.7853 21.152 15.7243 21.1016 15.6737C21.0513 15.6232 20.9905 15.5843 20.9236 15.5598C20.8567 15.5353 20.7852 15.5257 20.7143 15.5318V15.5318ZM11.5162 16.2428C11.4545 17.2631 10.9926 18.2174 10.2316 18.8967C9.47069 19.5761 8.47262 19.9252 7.45584 19.8677C6.43804 19.9253 5.43886 19.5765 4.67632 18.8974C3.91378 18.2182 3.44977 17.264 3.38553 16.2428V11.7366C3.38056 11.6466 3.38056 11.5563 3.38553 11.4663C3.39351 10.9719 3.50929 10.4853 3.72474 10.0407C3.94018 9.5961 4.25005 9.20427 4.63256 8.89276C5.04539 8.50463 5.53481 8.20784 6.06914 8.02158C6.51719 7.8764 6.98502 7.80208 7.45584 7.80128C8.49573 7.78109 9.50826 8.13644 10.309 8.80264C10.6936 9.12755 11.0013 9.53418 11.2101 9.99311C11.4189 10.452 11.5234 10.9518 11.5162 11.4563V16.2428ZM4.38315 13.7694V14.22C4.38315 15.6119 5.70999 16.6533 7.45584 16.6533C9.20168 16.6533 10.5185 15.652 10.5185 14.22V13.7594C9.67778 14.522 8.57882 14.9339 7.44586 14.911C6.31852 14.9291 5.2255 14.5217 4.38315 13.7694V13.7694ZM6.28862 9.02294C5.75808 9.1788 5.28927 9.49707 4.94766 9.93331C4.60605 10.3695 4.4087 10.902 4.38315 11.4563V11.6866C4.41436 11.9994 4.51676 12.3009 4.68244 12.5678C4.99425 13.0058 5.41069 13.3583 5.89353 13.5927C6.37637 13.8272 6.91014 13.9361 7.44586 13.9096C7.98171 13.9371 8.5158 13.8285 8.9988 13.594C9.4818 13.3594 9.89811 13.0065 10.2093 12.5678C10.4128 12.2368 10.5199 11.8552 10.5185 11.4663C10.5148 11.1157 10.4321 10.7706 10.2766 10.4567C10.1211 10.1428 9.89688 9.86834 9.62068 9.6538C9.16 9.28134 8.61479 9.02887 8.03349 8.91881C7.4522 8.80875 6.85282 8.84452 6.28862 9.02294V9.02294ZM4.40311 16.5432C4.56102 17.2276 4.95291 17.8348 5.51064 18.2593C6.06837 18.6837 6.75666 18.8985 7.45584 18.8664C8.15597 18.9083 8.84788 18.697 9.40611 18.2707C9.96434 17.8445 10.3519 17.2316 10.4986 16.5432C9.662 17.2885 8.57398 17.6859 7.45584 17.6547C6.33493 17.6845 5.24432 17.2874 4.40311 16.5432V16.5432Z" fill="currentColor"/>
</svg>

<svg xmlns="http://www.w3.org/2000/svg" width="24" height="24" viewBox="0 0 24 24" fill="none"><path fill="currentColor" fill-rule="evenodd" d="M21.243 9.924h-2.075a2.049 2.049 0 0 0-1.477.685 2.065 2.065 0 0 0-.518 1.548c.063.518.313.994.703 1.34.39.345.892.534 1.412.533h1.995a.995.995 0 0 0 .997-1.002v-2.082a1.003 1.003 0 0 0-1.037-1.022Zm-.529 5.608h-1.426a3.633 3.633 0 0 1-2.469-.912 3.66 3.66 0 0 1-1.213-2.343A3.539 3.539 0 0 1 17.795 8.7a3.42 3.42 0 0 1 1.343-.248h1.546a.487.487 0 0 0 .5-.53 4.615 4.615 0 0 0-1.263-2.995 4.582 4.582 0 0 0-2.918-1.412c-.249-.02-.5-.02-.748 0H7.276c-.27 0-.54.02-.808.06a4.633 4.633 0 0 0-3.07 1.605 4.667 4.667 0 0 0-1.11 3.292v7.01c0 1.328.526 2.601 1.461 3.54a4.979 4.979 0 0 0 3.527 1.467h8.979a4.653 4.653 0 0 0 3.418-1.164 4.686 4.686 0 0 0 1.57-3.262.492.492 0 0 0-.529-.531Zm-9.198.71a3.87 3.87 0 0 1-1.284 2.655 3.842 3.842 0 0 1-2.776.97 3.852 3.852 0 0 1-2.78-.97 3.881 3.881 0 0 1-1.29-2.654v-4.506a2.452 2.452 0 0 1 0-.27 3.395 3.395 0 0 1 1.247-2.574 4.038 4.038 0 0 1 1.436-.871c.448-.146.916-.22 1.387-.22a4.33 4.33 0 0 1 2.853 1 3.403 3.403 0 0 1 1.207 2.654v4.787ZM4.383 13.77v.451c0 1.392 1.327 2.433 3.073 2.433s3.062-1.001 3.062-2.433v-.46a4.44 4.44 0 0 1-3.072 1.151 4.49 4.49 0 0 1-3.063-1.142ZM6.29 9.023c-.53.156-1 .474-1.341.91a2.67 2.67 0 0 0-.565 1.523v.23c.031.313.134.615.3.882a3.205 3.205 0 0 0 2.763 1.342 3.182 3.182 0 0 0 2.763-1.342c.204-.331.31-.713.31-1.102a2.33 2.33 0 0 0-.898-1.812 3.585 3.585 0 0 0-3.332-.631Zm-1.886 7.52c.158.685.55 1.292 1.108 1.716.557.425 1.246.64 1.945.607.7.042 1.392-.169 1.95-.595a2.945 2.945 0 0 0 1.093-1.728 4.39 4.39 0 0 1-3.043 1.112 4.43 4.43 0 0 1-3.053-1.112Z" clip-rule="evenodd"/></svg>
